packages/nodes-base/nodes/Files/ConvertToFile/convertToFile.svg

<svg xmlns="http://www.w3.org/2000/svg" width="512" height="512" fill="none"><g fill="#24F" clip-path="url(#a)"><path d="M170 39.808C170 33.287 175.287 28 181.808 28H338.41v161.59c0 6.628 5.372 12 12 12H512v271.303c0 6.522-5.287 11.808-11.808 11.808H181.808a11.79 11.79 0 0 1-9.401-4.662 56.3 56.3 0 0 0 9.081-7.331l90-89.5a56 56 0 0 0 0-79.416l-90-89.5A56 56 0 0 0 170 205.487z"/><path d="M369.898 34a6 6 0 0 1 6-6h2.666c3.136 0 6.144 1.248 8.359 3.468l121.628 121.918a11.8 11.8 0 0 1 3.449 8.34v2.376a6 6 0 0 1-6 6H375.898a6 6 0 0 1-6-6z"/><path fill-rule="evenodd" d="M125.077 415.982c-9.399 9.347-9.441 24.543-.095 33.941s24.543 9.441 33.941.095l90-89.5a24 24 0 0 0 0-34.036l-90-89.5c-9.398-9.346-24.594-9.304-33.941.095-9.346 9.398-9.304 24.594.095 33.941L173.327 319H12c-6.627 0-12 5.373-12 12v24c0 6.627 5.373 12 12 12h162.333z" clip-rule="evenodd"/></g><defs><clipPath id="a"><path fill="#fff" d="M0 0h512v512H0z"/></clipPath></defs></svg>

<svg width="512" height="512" viewBox="0 0 512 512" fill="none" xmlns="http://www.w3.org/2000/svg">
<g clip-path="url(#clip0_1147_463)">
<path d="M170 39.8081C170 33.2867 175.287 28 181.808 28H338.41V189.59C338.41 196.218 343.782 201.59 350.41 201.59H512L512 472.893C512 479.415 506.713 484.701 500.192 484.701H181.808C177.972 484.701 174.564 482.873 172.407 480.039C175.619 477.958 178.665 475.515 181.488 472.708L271.488 383.208C282.057 372.697 288 358.406 288 343.5C288 328.594 282.057 314.303 271.488 303.792L181.488 214.292C177.969 210.793 174.103 207.858 170 205.487V39.8081Z" fill="#2244FF"/>
<path d="M369.898 34C369.898 30.6863 372.584 28 375.898 28H378.564C381.7 28 384.708 29.2479 386.923 31.4684L508.551 153.386C510.76 155.6 512 158.599 512 161.726L512 164.102C512 167.416 509.314 170.102 506 170.102H375.898C372.584 170.102 369.898 167.416 369.898 164.102V34Z" fill="#2244FF"/>
<path fill-rule="evenodd" clip-rule="evenodd" d="M125.077 415.982C115.678 425.329 115.636 440.525 124.982 449.923C134.329 459.322 149.525 459.364 158.923 450.018L248.923 360.518C253.453 356.013 256 349.888 256 343.5C256 337.112 253.453 330.987 248.923 326.482L158.923 236.982C149.525 227.636 134.329 227.678 124.982 237.077C115.636 246.475 115.678 261.671 125.077 271.018L173.327 319L12 319C5.37257 319 -4.12516e-06 324.373 -4.41485e-06 331L-5.46392e-06 355C-5.75362e-06 361.627 5.37258 367 12 367L174.333 367L125.077 415.982Z" fill="#2244FF"/>
</g>
<defs>
<clipPath id="clip0_1147_463">
<rect width="512" height="512" fill="white"/>
</clipPath>
</defs>
</svg>
